packages/ui-kit/src/icons/svg/HTTP-API.svg

<?xml version="1.0" encoding="UTF-8"?>
<svg width="80px" height="80px" viewBox="0 0 80 80" version="1.1" xmlns="http://www.w3.org/2000/svg" xmlns:xlink="http://www.w3.org/1999/xlink">
    <title>HTTP_API_80x80</title>
    <g id="Color-Scheme---Products-/-Solution" stroke="none" stroke-width="1" fill="none" fill-rule="evenodd">
        <g id="Icon-final" transform="translate(-21.000000, -17.000000)" fill-rule="nonzero">
            <g id="HTTP_API_80x80" transform="translate(21.000000, 17.000000)">
                <path d="M69.0785332,45.350194 L77.2785332,50.650194 C78.0009059,51.1170934 78.0383199,52.1429958 77.3914164,52.6679532 L77.277263,52.7506259 L40.977263,76.1506259 C40.6061205,76.3898748 40.1398967,76.4137997 39.7497379,76.2224006 L39.622737,76.1506259 L3.32273701,52.7506259 C2.60090814,52.2853148 2.56102554,51.2614723 3.2050877,50.7349188 L3.31876456,50.6519455 L11.3187646,45.4519455 L12.6812354,47.5480545 L6.3,51.695 L40.3,73.612 L74.295,51.698 L67.7214668,47.449806 L69.0785332,45.350194 Z" id="Path" fill="#078CDF"></path>
                <path d="M69.0694275,34.8443643 L77.2694275,40.0443643 C77.9995551,40.507372 78.0417326,41.5397133 77.3919652,42.0675148 L77.277263,42.1506259 L40.977263,65.5506259 C40.6061205,65.7898748 40.1398967,65.8137997 39.7497379,65.6224006 L39.622737,65.5506259 L3.32273701,42.1506259 C2.59607445,41.6821988 2.56157879,40.6495723 3.21525513,40.1266197 L3.33057247,40.0443643 L11.5305725,34.8443643 L12.8694275,36.9556357 L6.32,41.108 L40.3,63.012 L74.279,41.108 L67.7305725,36.9556357 L69.0694275,34.8443643 Z" id="Path" fill="#078CDF"></path>
                <path d="M66.6473756,24.2258473 C66.9948782,23.6832555 67.691505,23.499475 68.2555018,23.7800959 L68.3741527,23.8473756 L77.2741527,29.5473756 C78.0002619,30.0124118 78.0399637,31.0414153 77.3916807,31.5677421 L77.277263,31.6506259 L40.977263,55.0506259 C40.6061205,55.2898748 40.1398967,55.3137997 39.7497379,55.1224006 L39.622737,55.0506259 L3.32273701,31.6506259 C2.59772687,31.183264 2.56138071,30.1536398 3.21177327,29.6294418 L3.32653039,29.5469384 L11.9265304,24.0469384 C12.5081202,23.6749914 13.2811146,23.8449405 13.6530616,24.4265304 C14.0002121,24.9693476 13.8753109,25.6788994 13.3842604,26.0735004 L13.2734696,26.1530616 L6.313,30.604 L40.3,52.512 L74.287,30.603 L67.0258473,25.9526244 C66.4832555,25.6051218 66.299475,24.908495 66.5800959,24.3444982 L66.6473756,24.2258473 Z" id="Path" fill="#078CDF"></path>
                <path d="M32.0727273,34 L27.6741818,34 L26.9410909,28.9230769 L21.5650909,28.9230769 L20.832,34 L16.8,34 L21.2290909,6 L27.6436364,6 L32.0727273,34 Z M22.1149091,25.1076923 L26.3301818,25.1076923 L24.2225455,10.9538462 L22.1149091,25.1076923 Z" id="Shape" fill="#044E7C"></path>
                <path d="M52.115508,12.9230769 L52.115508,16.5538462 C52.115508,21.0461538 50.00934,23.4769231 45.7067395,23.4769231 L43.6908358,23.4769231 L43.6908358,34 L39.3882353,34 L39.3882353,6 L45.7067395,6 C50.00934,6 52.115508,8.43076923 52.115508,12.9230769 Z M43.6908358,10 L43.6908358,19.4769231 L45.7067395,19.4769231 C47.0907928,19.4769231 47.8129075,18.8307692 47.8129075,16.8307692 L47.8129075,12.6461538 C47.8129075,10.6461538 47.0907928,10 45.7067395,10 L43.6908358,10 Z" id="Shape" fill="#044E7C"></path>
                <polygon id="Path" fill="#044E7C" points="59.1529412 6 64.2438503 6 64.2438503 34 59.1529412 34"></polygon>
            </g>
        </g>
    </g>
</svg>

<svg viewBox="0 0 80 80" width="80px" height="80px" xmlns="http://www.w3.org/2000/svg">
  <g fill-rule="nonzero" fill="none">
    <path d="M69.079 45.35l8.2 5.3a1.25 1.25 0 01.112 2.018l-.114.083-36.3 23.4a1.25 1.25 0 01-1.227.071l-.127-.071-36.3-23.4a1.25 1.25 0 01-.118-2.016l.114-.083 8-5.2 1.362 2.096L6.3 51.695l34 21.917 33.995-21.914-6.574-4.248 1.358-2.1z" fill="#078CDF"/>
    <path d="M69.07 34.844l8.2 5.2a1.25 1.25 0 01.122 2.024l-.115.083-36.3 23.4a1.25 1.25 0 01-1.227.071l-.127-.071-36.3-23.4a1.25 1.25 0 01-.108-2.024l.116-.083 8.2-5.2 1.338 2.112-6.549 4.152L40.3 63.012l33.979-21.904-6.548-4.152 1.338-2.112z" fill="#078CDF"/>
    <path d="M66.647 24.226a1.25 1.25 0 011.609-.446l.118.067 8.9 5.7a1.25 1.25 0 01.118 2.02l-.115.084-36.3 23.4a1.25 1.25 0 01-1.227.071l-.127-.071-36.3-23.4a1.25 1.25 0 01-.111-2.022l.115-.082 8.6-5.5a1.25 1.25 0 011.457 2.027l-.11.08-6.961 4.45L40.3 52.512l33.987-21.909-7.261-4.65a1.25 1.25 0 01-.446-1.609l.067-.118z" fill="#078CDF"/>
    <path d="M32.073 34h-4.399l-.733-5.077h-5.376L20.832 34H16.8l4.43-28h6.414l4.429 28zm-9.958-8.892h4.215l-2.107-14.154-2.108 14.154zM52.116 12.923v3.63c0 4.493-2.107 6.924-6.41 6.924h-2.015V34h-4.303V6h6.319c4.302 0 6.409 2.43 6.409 6.923zM43.69 10v9.477h2.016c1.384 0 2.106-.646 2.106-2.646v-4.185c0-2-.722-2.646-2.106-2.646H43.69zM59.153 6h5.09v28h-5.09z" fill="#044E7C"/>
  </g>
</svg>
